X: 35602
T: Sad Man And The Sea, The
R: reel
M: 4/4
K: Eminor
BG|:EEFG A2GA|BdBG A2GA|BBAG EGDG|
EFGA F2EF|GGFE DGEG|AGAB d2ed|
BedB AcBG|1 EGDG EcBG:|2 EGDG E2c2||
|:e2f2 gfed|Bdea f2dB|e2f2 gfed|
BGED BABG|g2f2 e2d2|BABc BGFA|
c2e2 b2a2|1 gafd edBc:|2 gafd edBG||

